!!!OTL: ES WOHNT EIN KOENIG AN DEM RHEIN
!!!ARE: Europa, Mitteleuropa, Deutschland, Bergisches Land
!!!SCT: E0182E
!!!YEM: Copyright 1995, estate of Helmut Schaffrath.
**kern
*ICvox
*Ivox
*M2/4
*k[f#]
*G:
{16g
16b
=1
4dd
4a
=2
8dd
8cc
8b
8a
=3
4g
8b
8a
=4
4g
8r}
{8b
=5
4a
8a
8a
=6
4e
8f#
8f#
=7
4g
8f#
8e
=8
4d
8r}
{8d
=9
4g
8g
8g
=10
4a
8dd
8dd
=11
4b
8a
8b
=12
4g
8r}
==
!!!AGN: erzaehlendes Volks - Lied, Sage, Familien - Geschichte
!!!ONB: ESAC (Essen Associative Code) Database: ERK1
!!!AMT: simple duple
!!!AIN: vox
!!!EED: Helmut Schaffrath
!!!EEV: 1.0
*-
